X:1
T:James Gibb editions
T:Confitemini Domino - Ravanello
T:#
%%score { 1 | 2 } 3
L:1/8
Q:1/4=96
M:3/4
K:G
V:1 treble nm="Soprano I" snm="S"
V:2 treble 
V:3 treble nm="Alto" snm="A"
V:1
 z2"^Confitemini Domino, op.66/10""^Oreste Ravanello\n (1871-1938)""^allegro moderato"!f! !tenuto!d2 !tenuto!d2 | %1
w: Con- fi-|
 !tenuto!d3 d d2 | e4 e2 | d6 | d3 c B2 |[M:3/4] (B4 ^c2) | d6 | d3 d d2 | B2 e2 d2 | %9
w: te- mi- ni|Do- mi-|no,|quo- ni- am|Bo\- *|nus:|quo- ni- am|in sae- cu-|
"^," =c2 (d3 c) | (B2 e2) e2 | d4 c2 |"^," B4 (e2- | e2 dc B2 | A6) | !fermata!B6 |] %16
w: lum mi\- *|se\- * ri-|cor- di-|a e\-|||ius.|
V:2
 z2!f! !tenuto!B2 !tenuto!B2 | !tenuto!B3 B B2 | G4 c2 | B6 | A3 A G2 |[M:3/4] G6 | F6 | F3 G A2 | %8
w: Con- fi-|te- mi- ni|Do- mi-|no,|quo- ni- am|Bo-|nus:|quo- ni- am|
 B2 (G2 AB | =cBAG) F2 |"^," G4 G2 | (F3 G) A2 | (BAGF E)F |"^," G2 (G4- | G2 FE F2) | %15
w: in sae\- * *|* * * * cu-|lum mi-|se\- * ri-|cor\- * * * * di-|a e\-||
 !fermata!G6 |] %16
w: ius.|
V:3
 z2!f! !tenuto!G2 !tenuto!G2 | !tenuto!G3 G G2 | C4 C2 | G6 | F3 F G2 |[M:3/4] E6 | D6 | D3 E F2 | %8
w: Con- fi-|te- mi- ni|Do- mi-|no,|quo- ni- am|Bo-|nus:|quo- ni- am|
 G2 (E2 FG | AGFE) D2 |"^," E4 C2 | (D3 E) F2 | (GF E)D"^," C2 | (B,4 E2 | C2 D4) | !fermata!G,6 |] %16
w: in sae\- * *|* * * * cu-|lum mi-|se\- * ri-|cor\- * * di- a|e\- *||ius.|

